src/assets/flags/gg.svg

<?xml version="1.0" encoding="UTF-8"?>
<svg xmlns="http://www.w3.org/2000/svg" xmlns:xlink="http://www.w3.org/1999/xlink" width="25px" height="19px" viewBox="0 0 25 19" version="1.1">
<g id="surface1">
<rect x="0" y="0" width="25" height="19" style="fill:rgb(100%,100%,100%);fill-opacity:1;stroke:none;"/>
<path style=" stroke:none;fill-rule:nonzero;fill:rgb(90.980393%,6.666667%,17.647059%);fill-opacity:1;" d="M 10 0 L 15 0 L 15 19 L 10 19 Z M 10 0 "/>
<path style=" stroke:none;fill-rule:nonzero;fill:rgb(90.980393%,6.666667%,17.647059%);fill-opacity:1;" d="M 0 6.964844 L 25 6.964844 L 25 12.035156 L 0 12.035156 Z M 0 6.964844 "/>
<path style=" stroke:none;fill-rule:nonzero;fill:rgb(97.647059%,86.666667%,8.627451%);fill-opacity:1;" d="M 4.296875 11.347656 L 5.207031 10.421875 L 13.410156 10.421875 L 13.410156 8.578125 L 5.207031 8.578125 L 4.296875 7.652344 Z M 4.296875 11.347656 "/>
<path style=" stroke:none;fill-rule:nonzero;fill:rgb(97.647059%,86.666667%,8.627451%);fill-opacity:1;" d="M 10.675781 1.1875 L 11.589844 2.109375 L 11.589844 10.421875 L 13.410156 10.421875 L 13.410156 2.109375 L 14.324219 1.1875 Z M 10.675781 1.1875 "/>
<path style=" stroke:none;fill-rule:nonzero;fill:rgb(97.647059%,86.666667%,8.627451%);fill-opacity:1;" d="M 14.324219 17.8125 L 13.410156 16.890625 L 13.410156 8.578125 L 11.589844 8.578125 L 11.589844 16.890625 L 10.675781 17.8125 Z M 14.324219 17.8125 "/>
<path style=" stroke:none;fill-rule:nonzero;fill:rgb(97.647059%,86.666667%,8.627451%);fill-opacity:1;" d="M 20.703125 7.652344 L 19.792969 8.578125 L 11.589844 8.578125 L 11.589844 10.421875 L 19.792969 10.421875 L 20.703125 11.347656 Z M 20.703125 7.652344 "/>
</g>
</svg>

<svg xmlns="http://www.w3.org/2000/svg" width="25" height="19" viewBox="0 0 25 19"><path d="M0 0h25v19H0z" style="fill:#fff;fill-opacity:1;stroke:none"/><path d="M10 0h5v19h-5Zm0 0" style="stroke:none;fill-rule:nonzero;fill:#e8112d;fill-opacity:1"/><path d="M0 6.965h25v5.07H0Zm0 0" style="stroke:none;fill-rule:nonzero;fill:#e8112d;fill-opacity:1"/><path d="m4.297 11.348.91-.926h8.203V8.578H5.207l-.91-.926Zm0 0" style="stroke:none;fill-rule:nonzero;fill:#f9dd16;fill-opacity:1"/><path d="m10.676 1.188.914.921v8.313h1.82V2.109l.914-.921Zm0 0" style="stroke:none;fill-rule:nonzero;fill:#f9dd16;fill-opacity:1"/><path d="m14.324 17.813-.914-.922V8.578h-1.82v8.313l-.914.922Zm0 0" style="stroke:none;fill-rule:nonzero;fill:#f9dd16;fill-opacity:1"/><path d="m20.703 7.652-.91.926H11.59v1.844h8.203l.91.926Zm0 0" style="stroke:none;fill-rule:nonzero;fill:#f9dd16;fill-opacity:1"/></svg>
